public/img/UGD-zoom-mas.svg

<?xml version="1.0" encoding="utf-8"?>
<!-- Generator: Adobe Illustrator 16.0.0, SVG Export Plug-In . SVG Version: 6.00 Build 0)  -->
<!DOCTYPE svg PUBLIC "-//W3C//DTD SVG 1.0//EN" "http://www.w3.org/TR/2001/REC-SVG-20010904/DTD/svg10.dtd">
<svg version="1.0" id="Layer_1" xmlns="http://www.w3.org/2000/svg" xmlns:xlink="http://www.w3.org/1999/xlink" x="0px" y="0px"
	 width="12px" height="12px" viewBox="0 0 12 12" enable-background="new 0 0 12 12" xml:space="preserve">
<title>Combined Shape</title>
<desc>Created with Sketch.</desc>
<g id="Symbols">
	<g id="Layout-_x2F_-Zoom" transform="translate(-10.000000, -10.000000)">
		<path id="Combined-Shape" fill="#52595E" d="M17,15v-5h-2v5h-5v2h5v5h2v-5h5v-2H17z"/>
	</g>
</g>
</svg>

<?xml version="1.0" encoding="UTF-8" standalone="no"?>
<svg width="12px" height="12px" viewBox="0 0 12 12" version="1.1" xmlns="http://www.w3.org/2000/svg" xmlns:xlink="http://www.w3.org/1999/xlink">
    <!-- Generator: Sketch 42 (36781) - http://www.bohemiancoding.com/sketch -->
    <title>Combined Shape</title>
    <desc>Created with Sketch.</desc>
    <defs></defs>
    <g id="Symbols" stroke="none" stroke-width="1" fill="none" fill-rule="evenodd">
        <g id="Layout-/-Zoom" transform="translate(-10.000000, -10.000000)" fill="#C3CDD4">
            <path d="M17,15 L17,10 L15,10 L15,15 L10,15 L10,17 L15,17 L15,22 L17,22 L17,17 L22,17 L22,15 L17,15 Z" id="Combined-Shape"></path>
        </g>
    </g>
</svg>
